Assets/Icons/food & beverage/cutlery-plate.svg

<svg enable-background="new 0 0 60 60" viewBox="0 0 60 60" xmlns="http://www.w3.org/2000/svg"><path d="m30 1.5c-15.71 0-28.5 12.79-28.5 28.5s12.79 28.5 28.5 28.5 28.5-12.79 28.5-28.5-12.79-28.5-28.5-28.5zm0 54c-14.06 0-25.5-11.44-25.5-25.5s11.44-25.5 25.5-25.5 25.5 11.44 25.5 25.5-11.44 25.5-25.5 25.5z"/><path d="m36.59 10.62c-.99-.42-2.09.3-2.09 1.38v36.49c0 1.38 1.12 2.5 2.5 2.5.28 0 .5-.22.5-.5v-14.98c0-.54.22-1.05.6-1.43.34-.34.71-.73 1.04-1.1 3.59-4.19 5.06-9.56 3.94-14.38-.87-3.72-3.17-6.56-6.49-7.98zm.91 19.61v-15.54c1.3 1.14 2.22 2.71 2.66 4.59.82 3.54-.19 7.65-2.66 10.95z"/><path d="m30.99 11c-1.37.01-2.49 1.12-2.49 2.5v6.5c0 1.95-1.26 3.62-3 4.24v-12.74c0-.28-.23-.5-.51-.5-1.37.01-2.49 1.12-2.49 2.5v10.72c-1.78-.66-3-2.44-3-4.42v-8.3c0-.28-.23-.5-.51-.5-1.37.01-2.49 1.12-2.49 3.22v5.52c0 3.18 1.91 6.07 4.73 7.22.75.3 1.27.99 1.27 1.79v19.74c0 1.38 1.12 2.5 2.5 2.5.28 0 .5-.22.5-.5v-21.6c0-.82.47-1.6 1.24-1.91 2.78-1.1 4.76-3.81 4.76-6.98v-8.5c0-.28-.23-.5-.51-.5z"/></svg>

<?xml version="1.0" encoding="utf-8"?>
<!-- Generator: Adobe Illustrator 22.1.0, SVG Export Plug-In . SVG Version: 6.00 Build 0)  -->
<svg version="1.1" id="eps" xmlns="http://www.w3.org/2000/svg" xmlns:xlink="http://www.w3.org/1999/xlink" x="0px" y="0px"
	 viewBox="0 0 60 60" style="enable-background:new 0 0 60 60;" xml:space="preserve">
<g>
	<path d="M30,1.5C14.3,1.5,1.5,14.3,1.5,30S14.3,58.5,30,58.5S58.5,45.7,58.5,30S45.7,1.5,30,1.5z M30,55.5
		C15.9,55.5,4.5,44.1,4.5,30S15.9,4.5,30,4.5S55.5,15.9,55.5,30S44.1,55.5,30,55.5z"/>
	<path d="M36.6,10.6c-1-0.4-2.1,0.3-2.1,1.4v36.5c0,1.4,1.1,2.5,2.5,2.5c0.3,0,0.5-0.2,0.5-0.5v-15c0-0.5,0.2-1,0.6-1.4
		c0.3-0.3,0.7-0.7,1-1.1c3.6-4.2,5.1-9.6,3.9-14.4C42.2,14.9,39.9,12,36.6,10.6z M37.5,30.2V14.7c1.3,1.1,2.2,2.7,2.7,4.6
		C41,22.8,40,26.9,37.5,30.2z"/>
	<path d="M31,11c-1.4,0-2.5,1.1-2.5,2.5V20c0,2-1.3,3.6-3,4.2V11.5c0-0.3-0.2-0.5-0.5-0.5c-1.4,0-2.5,1.1-2.5,2.5v10.7
		c-1.8-0.7-3-2.4-3-4.4v-8.3c0-0.3-0.2-0.5-0.5-0.5c-1.4,0-2.5,1.1-2.5,3.2v5.5c0,3.2,1.9,6.1,4.7,7.2c0.8,0.3,1.3,1,1.3,1.8v19.7
		c0,1.4,1.1,2.5,2.5,2.5c0.3,0,0.5-0.2,0.5-0.5V28.9c0-0.8,0.5-1.6,1.2-1.9c2.8-1.1,4.8-3.8,4.8-7v-8.5C31.5,11.2,31.3,11,31,11z"/>
</g>
</svg>
